src/images/global/icons/social/blog-fill.svg

<?xml version="1.0" encoding="UTF-8"?>
<svg width="48px" height="48px" viewBox="0 0 48 48" version="1.1" xmlns="http://www.w3.org/2000/svg" xmlns:xlink="http://www.w3.org/1999/xlink">
    <!-- Generator: Sketch 46.2 (44496) - http://www.bohemiancoding.com/sketch -->
    <title>icon/Social/blog-fill</title>
    <desc>Created with Sketch.</desc>
    <defs>
        <path d="M16,0 C7.16338462,0 0,7.16338462 0,16 C0,24.8366154 7.16338462,32 16,32 C24.8366154,32 32,24.8366154 32,16 C32,7.16338462 24.8366154,0 16,0 L16,0 Z M12.5964615,23.9389231 C10.2895385,23.9389231 8.41261538,22.0621538 8.41261538,19.7552308 L8.41261538,12.4215385 C8.41261538,11.9118462 8.826,11.4984615 9.33569231,11.4984615 C9.84538462,11.4984615 10.2587692,11.9118462 10.2587692,12.4215385 L10.2587692,19.7550769 C10.2587692,21.044 11.3073846,22.0926154 12.5964615,22.0926154 C13.8853846,22.0926154 14.934,21.044 14.934,19.7550769 C14.934,18.4661538 13.8853846,17.4176923 12.5964615,17.4176923 C12.0867692,17.4176923 11.6733846,17.0043077 11.6733846,16.4946154 C11.6733846,15.9849231 12.0867692,15.5715385 12.5964615,15.5715385 C14.9033846,15.5715385 16.7801538,17.4483077 16.7801538,19.7550769 C16.7801538,22.062 14.9033846,23.9389231 12.5964615,23.9389231 L12.5964615,23.9389231 Z M18.9621538,18.6315385 C18.4524615,18.6315385 18.0390769,18.2181538 18.0390769,17.7084615 C18.0390769,15.836 16.5158462,14.3124615 14.6432308,14.3124615 C14.1335385,14.3124615 13.7201538,13.8990769 13.7201538,13.3893846 C13.7201538,12.8796923 14.1335385,12.4663077 14.6432308,12.4663077 C17.5336923,12.4663077 19.8852308,14.818 19.8852308,17.7084615 C19.8852308,18.2183077 19.4718462,18.6315385 18.9621538,18.6315385 L18.9621538,18.6315385 Z M22.9718462,19.1324615 C22.4621538,19.1324615 22.0487692,18.7190769 22.0487692,18.2093846 C22.0487692,13.8496923 18.5016923,10.3026154 14.142,10.3026154 C13.6323077,10.3026154 13.2189231,9.88923077 13.2189231,9.37953846 C13.2189231,8.86984615 13.6323077,8.45646154 14.142,8.45646154 C19.5198462,8.45646154 23.8949231,12.8315385 23.8949231,18.2093846 C23.8949231,18.7192308 23.4816923,19.1324615 22.9718462,19.1324615 L22.9718462,19.1324615 Z" id="path-1"></path>
    </defs>
    <g id="Symbols" stroke="none" stroke-width="1" fill="none" fill-rule="evenodd">
        <g id="icon/Social/blog-fill">
            <g id="Icon" transform="translate(8.000000, 8.000000)">
                <mask id="mask-2" fill="white">
                    <use xlink:href="#path-1"></use>
                </mask>
                <use id="Mask" fill="#384048" xlink:href="#path-1"></use>
                <g id="Color/Grayscale/Night-Sky" mask="url(#mask-2)" fill="#111111">
                    <g transform="translate(-8.000000, -8.000000)" id="Swatch">
                        <rect x="0" y="0" width="48" height="48"></rect>
                    </g>
                </g>
            </g>
        </g>
    </g>
</svg>

<?xml version="1.0" encoding="utf-8"?>
<!-- Generator: Adobe Illustrator 21.0.2, SVG Export Plug-In . SVG Version: 6.00 Build 0)  -->
<svg version="1.1" id="icon_x2F_Social_x2F_blog-fill-Layer_1" xmlns="http://www.w3.org/2000/svg" xmlns:xlink="http://www.w3.org/1999/xlink" x="0px" y="0px"
	 viewBox="0 0 48 48" style="enable-background:new 0 0 48 48;" xml:space="preserve">
<title>icon/Social/blog-fill</title>
<desc>Created with Sketch.</desc>
<g id="icon_x2F_Social_x2F_blog-fill-Symbols">
	<g id="icon_x2F_Social_x2F_blog-fill">
		<g id="icon_x2F_Social_x2F_blog-fill-Icon" transform="translate(8.000000, 8.000000)">
			<g id="icon_x2F_Social_x2F_blog-fill-Mask">
				<path id="icon_x2F_Social_x2F_blog-fill-path-1_1_" style="fill:#384048;" d="M16,0C7.2,0,0,7.2,0,16s7.2,16,16,16s16-7.2,16-16S24.8,0,16,0L16,0z M12.6,23.9
					c-2.3,0-4.2-1.9-4.2-4.2v-7.3c0-0.5,0.4-0.9,0.9-0.9s0.9,0.4,0.9,0.9v7.3c0,1.3,1,2.3,2.3,2.3c1.3,0,2.3-1,2.3-2.3
					s-1-2.3-2.3-2.3c-0.5,0-0.9-0.4-0.9-0.9c0-0.5,0.4-0.9,0.9-0.9c2.3,0,4.2,1.9,4.2,4.2C16.8,22.1,14.9,23.9,12.6,23.9L12.6,23.9z
					 M19,18.6c-0.5,0-0.9-0.4-0.9-0.9c0-1.9-1.5-3.4-3.4-3.4c-0.5,0-0.9-0.4-0.9-0.9s0.4-0.9,0.9-0.9c2.9,0,5.2,2.4,5.2,5.2
					C19.9,18.2,19.5,18.6,19,18.6L19,18.6z M23,19.1c-0.5,0-0.9-0.4-0.9-0.9c0-4.4-3.5-7.9-7.9-7.9c-0.5,0-0.9-0.4-0.9-0.9
					s0.4-0.9,0.9-0.9c5.4,0,9.8,4.4,9.8,9.8C23.9,18.7,23.5,19.1,23,19.1L23,19.1z"/>
			</g>
			<defs>
				<filter id="icon_x2F_Social_x2F_blog-fill-Adobe_OpacityMaskFilter" filterUnits="userSpaceOnUse" x="-8" y="-8" width="48" height="48">
					<feColorMatrix  type="matrix" values="1 0 0 0 0  0 1 0 0 0  0 0 1 0 0  0 0 0 1 0"/>
				</filter>
			</defs>
			<mask maskUnits="userSpaceOnUse" x="-8" y="-8" width="48" height="48" id="icon_x2F_Social_x2F_blog-fill-mask-2">
				<g style="filter:url(#icon_x2F_Social_x2F_blog-fill-Adobe_OpacityMaskFilter);">
					<path id="icon_x2F_Social_x2F_blog-fill-path-1" style="fill:#FFFFFF;" d="M16,0C7.2,0,0,7.2,0,16s7.2,16,16,16s16-7.2,16-16S24.8,0,16,0L16,0z M12.6,23.9
						c-2.3,0-4.2-1.9-4.2-4.2v-7.3c0-0.5,0.4-0.9,0.9-0.9s0.9,0.4,0.9,0.9v7.3c0,1.3,1,2.3,2.3,2.3c1.3,0,2.3-1,2.3-2.3
						s-1-2.3-2.3-2.3c-0.5,0-0.9-0.4-0.9-0.9c0-0.5,0.4-0.9,0.9-0.9c2.3,0,4.2,1.9,4.2,4.2C16.8,22.1,14.9,23.9,12.6,23.9L12.6,23.9
						z M19,18.6c-0.5,0-0.9-0.4-0.9-0.9c0-1.9-1.5-3.4-3.4-3.4c-0.5,0-0.9-0.4-0.9-0.9s0.4-0.9,0.9-0.9c2.9,0,5.2,2.4,5.2,5.2
						C19.9,18.2,19.5,18.6,19,18.6L19,18.6z M23,19.1c-0.5,0-0.9-0.4-0.9-0.9c0-4.4-3.5-7.9-7.9-7.9c-0.5,0-0.9-0.4-0.9-0.9
						s0.4-0.9,0.9-0.9c5.4,0,9.8,4.4,9.8,9.8C23.9,18.7,23.5,19.1,23,19.1L23,19.1z"/>
				</g>
			</mask>
			<g id="icon_x2F_Social_x2F_blog-fill-Color_x2F_Grayscale_x2F_Night-Sky" style="mask:url(#icon_x2F_Social_x2F_blog-fill-mask-2);">
				<g id="icon_x2F_Social_x2F_blog-fill-Swatch" transform="translate(-8.000000, -8.000000)">
					<rect style="fill:#111111;" width="48" height="48"/>
				</g>
			</g>
		</g>
	</g>
</g>
</svg>
